X:1
T:斯卡布罗集市
M:3/4
L:1/8
V:1
Q:1/4=80
K:C
|A,4A,2|E2E2E2|B,2C2B,2|A,6-|A,6-|
|A,2E2G2|A4G2|E2^F2D2|E6-|E6-|
|E2z4|z4A2|A4A2|G4E2|E2D2C2|B,A,G,4-|G,2z4|
|A,4E2|D4C2|B,2A,2G,2|A,6-|A,6-|A,2z4|